!!!!SEGMENT: pl-sa--552-a-ix-32--009_anonim--thema-con-variationi.krn
!!!id: 18xx:520
!!!COM: Anonim
!!!COM-rism: pe30004985
!!!CDT:
!!!CNT:
!!!OTL: Thema con variationi
!!!PDT:
!!!SMS-siglum: PL-SA
!!!SMS-shelfmark: 552/A IX 32
!!!SMS-variant:
!!!SMS-altvar:
!!!NIFC-rismID: 1001069501
!!!system-decoration: {(s1,s2)}
**kern	**kern
*part2	*part1
*staff2	*staff1
*	*I"Piano
*clefF4	*clefG2
*k[f#]	*k[f#]
*M2/2	*M2/2
*met(c|)	*met(c|)
*>[A,B,B,C,C,B,B,C,C,D,D,E,E,F,G,G,H,H,G,G,H,H,I,J,J,K,K,J,J,K,K,L,M,M,N,N,M,M,N,N,O,P,P,R,R,P,P,R,R,S,S,T,T]	*>[A,B,B,C,C,B,B,C,C,D,D,E,E,F,G,G,H,H,G,G,H,H,I,J,J,K,K,J,J,K,K,L,M,M,N,N,M,M,N,N,O,P,P,R,R,P,P,R,R,S,S,T,T]
*>A	*>A
*2\right	*2\right
!	!LO:TX:a:Bi:t=Thema Con Variationi.
4r	8.ddL 8.b\
.	16ccJk 16a\
=1	=1
4r	4b 4g/
4G\	4b 4g/
4GG/	4r
4r	4b 4g/
=2	=2
4r	4cc 4a\
4D\	4cc 4a\
4DD/	4r
4r	8.ccL 8.a\
.	16bJk 16g\
=3	=3
4r	4a 4f#/
4D\	4a 4f#/
4DD/	4r
4r	4a 4f#/
=4	=4
4r	4b 4g\
4G\	4r
4GG/	4r
4r	8bL 8g\
.	8ccJ 8a\
!LO:TX:a:t=[segno]:problem:znak segno na kresce taktowej	!LO:TX:a:t=[segno]:problem:znak segno na kresce taktowej
=5||	=5||
*>B	*>B
2G 2GG\	4dd 4b\
.	4dd 4b\
2G 2GG\	4dd 4b\
.	4dd 4b\
=6	=6
2C 2CC/	4.cc 4.a\
.	8dd 8b\
2C 2CC/	4ee 4cc\
.	4cc 4a\
=7	=7
!LO:N:vis=4	!
2D\	4b 4g/
.	8.bL 8.d/
.	16bJk 16d/
2DD/	4a 4c/
.	8.aL 8.c/
.	16aJk 16c/
=8	=8
4GG/	4g 4B/
4G\	4b 4d/
8GG/	8g 8B/
8r	8r
=:|!|:	=:|!|:
*>C	*>C
4r	8.ccL 8.a\
.	16bJk 16g\
=9	=9
4r	4a 4f#/
4D\	4a 4f#/
4DD/	4r
4r	4a 4f#/
!!LO:LB:g=original
=10	=10
4r	4b 4g/
4G\	4b 4g/
4GG/	4r
4r	4b 4g/
=11	=11
2D\	4cc 4a\
.	4cc 4a\
2DD/	4cc 4a\
.	4cc 4a\
=12	=12
4GG/	4b 4g/
4G\	4r
4GG/	4r
4r	8.bL 8.g\
.	16ccJk 16a\
!LO:TX:a:t=[segno]:problem:znak segno na kresce taktowej	!LO:TX:a:t=[segno]:problem:znak segno na kresce taktowej
!	!LO:TX:b:Bi:t=Dall Segno
=||	=||
*>D	*>D
*clefF4	*clefG2
*k[f#]	*k[f#]
*M2/2	*M2/2
*met(c|)	*met(c|)
!	!LO:TX:a:t=P:w źródle po lewej stronie systemu (przed Var&colon; 1mo) dodatkowa klamra:problem
!	!LO:TX:a:Bi:t=Var&colon; 1mo
4r	8dd\L
.	8cc\J
=13	=13
8BL 8G\	4b\
8d\J	.
8BL 8G\	4gg\
8d\J	.
*rep	*
8BL 8G\	4bb\
8d\J	.
*Xrep	*
*rep	*
8BL 8G\	8dd\L
8d\J	8b\J
*Xrep	*
=14	=14
8AL 8D\	4cc\
8c\J	.
*rep	*
8AL 8D\	4aa\
8c\J	.
*Xrep	*
*rep	*
8AL 8D\	4ccc\
8c\J	.
*Xrep	*
*rep	*
8AL 8D\	8cc\L
8c\J	8b\J
*Xrep	*
=15	=15
*rep	*
8AL 8D\	4a\
8c\J	.
8AL 8D\	4ff#\
8c\J	.
8AL 8D\	4aa\
8c\J	.
8AL 8D\	4ff#\
8c\J	.
*Xrep	*
=16	=16
8BL 8G\	8gg\L
8d\J	8bb\
8BL 8G\	8gg\
8d\J	8bb\J
4B 4G\	4gg\
4r	8dd\L
.	8cc\J
=17	=17
8BL 8G\	4b\
8d\J	.
*rep	*
8BL 8G\	8dd\L
8d\J	8gg\J
*Xrep	*
*rep	*
8BL 8G\	4bb\
8d\J	.
*Xrep	*
*rep	*
8BL 8G\	8dd\L
8d\J	8b\J
*Xrep	*
!!LO:LB:g=original
=18	=18
8EL 8C\	4cc\
8A\J	.
*rep	*
8EL 8C\	8ee\L
8A\J	8aa\J
*Xrep	*
*rep	*
8EL 8C\	4ccc\
8A\J	.
*Xrep	*
*rep	*
8EL 8C\	8ee\L
8A\J	8cc\J
*Xrep	*
=19	=19
*tremolo	*
8GL 8D\	8b\L
8B\	8dd\
8G 8D\	8gg\
8B\J	8bb\J
8AL 8D\	8a\L
8c\	8dd\
8A 8D\	8ff#\
8c\J	8aa\J
*Xtremolo	*
=20	=20
4B 4G\	8gg\L
.	8bb\
8GL 8GG/	8gg\
8GJ 8GG/	8bb\J
8G 8GG/	8gg\
8r	8r
=:|!|:	=:|!|:
*>E	*>E
4r	8cc\L
.	8b\J
=21	=21
*tremolo	*
8A 8D\L	4a\
8c\	.
8A 8D\	4ff#\
8c\J	.
*rep	*
8A 8D\L	4aa\
8c\	.
8A 8D\	8a\L
8c\J	8cc\J
*Xrep	*
=22	=22
8G 8D\L	4b\
8B\	.
8G 8D\	4gg\
8B\J	.
*rep	*
8G 8D\L	4bb\
8B\	.
8G 8D\	8b\L
8B\J	8dd\J
*Xrep	*
=23	=23
8A 8D\L	4cc\
8c\	.
8A 8D\	4aa\
8c\J	.
*rep	*
8A 8D\L	4ccc\
8c\	.
8A 8D\	4ff#\
8c\J	.
*Xrep	*
=24	=24
8B 8G\L	8gg\L
8d\	8bb\
8B 8G\	8gg\
8d\J	8bb\J
*Xtremolo	*
!LO:TX:a:t=P:w źródle poprawiona repetycja tremola na dwudźwięk i pauzę:problem	!
4B 4G\	4ddd\
4r	8b\L
.	8cc\J
=25	=25
*tremolo	*
8B 8G\L	4dd\
8d\	.
8B 8G\	8gg\L
8d\J	8dd\J
*rep	*
8B 8G\L	4bb\
8d\	.
8B 8G\	8dd\L
8d\J	8cc\J
*Xrep	*
=26	=26
8E 8C\L	4ee\
8A\	.
8E 8C\	8aa\L
8A\J	8ee\J
*rep	*
8E 8C\L	4ccc\
8A\	.
8E 8C\	8ee\L
8A\J	8cc\J
*Xrep	*
=27	=27
8G 8D\L	8b\L
8B\	8dd\
8G 8D\	8gg\
8B\J	8bb\J
8A 8D\L	8a\L
8c\	8dd\
8A 8D\	8ff#\
8c\J	8aa\J
=	=
8B 8G\L	8gg\L
8d\	8dd\
8B 8G\	8gg\
8d\J	8bb\J
*Xtremolo	*
8B 8G\	8gg\
8r	8r
!!LO:LB:g=original
=:|!;;	=:|!;;
*>F	*>F
*clefF4	*clefG2
*k[f#]	*k[f#]
*M2/2	*M2/2
*met(c|)	*met(c|)
!	!LO:TX:a:Bi:t=Var&colon; 2.:rj
4r	8.ddL 8.b\
.	16ccJk 16a\
=28	=28
*Xtuplet	*
12G\L	4b 4g/
12B\	.
12d\J	.
*rep	*clefF4
12G\L	4GG/
12B\	.
12d\J	.
*Xrep	*
*rep	*
12G\L	4GG/
12B\	.
12d\J	.
*Xrep	*
*rep	*clefG2
12G\L	4b 4g/
12B\	.
12d\J	.
*Xrep	*
=29	=29
12F#\L	4cc 4a\
12A\	.
12d\J	.
*rep	*clefF4
12F#\L	4DD/
12A\	.
12d\J	.
*Xrep	*
*rep	*
12F#\L	4DD/
12A\	.
12d\J	.
*Xrep	*
*rep	*clefG2
12F#\L	8.ccL 8.a\
12A\	.
12d\J	.
.	16bJk 16g\
*Xrep	*
=30	=30
*rep	*
12F#\L	4a 4f#/
12A\	.
12d\J	.
*	*clefF4
12F#\L	4DD/
12A\	.
12d\J	.
12F#\L	4DD/
12A\	.
12d\J	.
*	*clefG2
12F#\L	4a 4f#/
12A\	.
12d\J	.
*Xrep	*
=31	=31
12G\L	4b 4g/
12B\	.
12d\J	.
*rep	*clefF4
12G\L	4GG/
12B\	.
12d\J	.
*Xrep	*
*rep	*
12G\L	4GG/
12B\	.
12d\J	.
*Xrep	*
*rep	*clefG2
12G\L	8.bL 8.g\
12B\	.
12d\J	.
.	16ccJk 16a\
*Xrep	*
!LO:TX:a:t=[segno]:problem:znak segno na kresce taktowej	!LO:TX:a:t=[segno]:problem:znak segno na kresce taktowej
=32||	=32||
*>G	*>G
12G\L	4dd 4b\
12B\	.
12d\J	.
*rep	*clefF4
12G\L	4GG/
12B\	.
12d\J	.
*Xrep	*
*rep	*
12G\L	4GG/
12B\	.
12d\J	.
*Xrep	*
*rep	*clefG2
12G\L	4dd 4b\
12B\	.
12d\J	.
*Xrep	*
=33	=33
12G\L	4ee 4cc\
12c\	.
12e\J	.
*rep	*clefF4
12G\L	4C/
12c\	.
12e\J	.
*Xrep	*
!LO:TX:a:t=g	!
12G\L	4C/
12c\	.
12e\J	.
*rep	*clefG2
!	!LO:TX:a:t=P:w źródle skreślony dźwięk 4a:problem
12G\L	4ee 4cc\
12c\	.
12e\J	.
*Xrep	*
=34	=34
!	!LO:TX:a:t=P:w źródle skreślony dźwięk 4g:problem
12G\L	4dd 4b/
12B\	.
12d\J	.
*rep	*clefF4
12G\L	4GG/
12B\	.
12d\J	.
*Xrep	*
*	*clefG2
!	!LO:TX:a:t=P:w źródle skreślony dźwięk 4f#:problem
12D\L	4cc 4a/
12A\	.
12c\J	.
*rep	*clefF4
12D\L	4DD/
12A\	.
12c\J	.
*Xrep	*
=35	=35
!	!LO:CL:ed
*	*clefG2
12G\L	4b 4g/
12B\	.
12d\J	.
*rep	*clefF4
12G\L	4GG/
12B\	.
12d\J	.
*Xrep	*
4G\	4GG/
=:|!|:	=:|!|:
*>H	*>H
*	*clefG2
4r	8ccL 8a\
.	8bJ 8g\
!!LO:LB:g=original
=36	=36
12F#\L	4a 4f#/
12A\	.
12d\J	.
*rep	*clefF4
12F#\L	4D\
12A\	.
12d\J	.
*Xrep	*
*rep	*
12F#\L	4D\
12A\	.
12d\J	.
*Xrep	*
*rep	*clefG2
12F#\L	4a 4f#/
12A\	.
12d\J	.
*Xrep	*
=37	=37
12G\L	4b 4g/
12B\	.
12d\J	.
*rep	*clefF4
12G\L	4GG/
12B\	.
12d\J	.
*Xrep	*
*rep	*
12G\L	4GG/
12B\	.
12d\J	.
*Xrep	*
*rep	*clefG2
12G\L	4b 4g/
12B\	.
12d\J	.
*Xrep	*
=38	=38
12D\L	4cc 4a\
12A\	.
12c\J	.
*rep	*
12D\L	4cc 4a\
12A\	.
12c\J	.
*Xrep	*
*rep	*
12D\L	4cc 4a\
12A\	.
12c\J	.
*Xrep	*
*rep	*
12D\L	4cc 4a\
12A\	.
12c\J	.
*Xrep	*
=39	=39
12G\L	4b 4g/
12B\	.
12d\J	.
*rep	*
12G\L	4r
12B\	.
12d\J	.
*Xrep	*
4G\	4r
4ryy	8.bL 8.g\
.	16ccJk 16a\
*tuplet	*
!LO:TX:a:t=[segno]:problem:znak segno na kresce taktowej	!LO:TX:a:t=[segno]:problem:znak segno na kresce taktowej
!	!LO:TX:b:Bi:t=Dall Segno
=||	=||
*>I	*>I
*clefF4	*clefG2
*k[f#]	*k[f#]
*M2/2	*M2/2
*met(c|)	*met(c|)
!	!LO:TX:a:t=P:w źródle po lewej stronie systemu (przed Var&colon; 3.) dodatkowa klamra:problem
!	!LO:TX:a:Bi:t=Var&colon; 3.
4r	8.ddL 8.b\
.	16ccJk 16a\
=40	=40
8G\L	4b 4g\
8F#\	.
8G\	4b 4g\
8F#\J	.
8G\L	4r
8A\	.
8B\	4b 4g/
8G\J	.
=41	=41
8d\L	4cc 4a\
8c#X\	.
8d\	4cc 4a\
8c#\J	.
4d\	4r
4r	8.ccL 8.a\
.	16bJk 16g\
=42	=42
8D/L	4a 4f#/
8C#X/	.
8D/	4a 4f#/
8C#/J	.
8D\L	4r
8E\	.
8F#\	4a 4f#/
8D\J	.
!!LO:LB:g=original
=43	=43
8G\L	4b 4g/
8F#\	.
8G\	4r
8F#\J	.
4G\	4r
4r	8bL 8g\
.	8ccJ 8a\
!LO:TX:a:t=[segno]:problem:znak segno na kresce taktowej	!LO:TX:a:t=[segno]:problem:znak segno na kresce taktowej
=44||	=44||
*>J	*>J
8G\L	4dd 4b\
8F#\	.
8G\	4dd 4b\
8F#\J	.
8G\L	4dd 4b\
8A\	.
8B\	4dd 4b\
8G\J	.
=45	=45
8C\L	4.cc 4.a\
8BB\	.
8C\	.
8BB\J	8dd 8b\
8C\L	4ee 4cc\
8D\	.
8E\	4cc 4a\
8C\J	.
=46	=46
8D\L	4b 4g/
8C#X\	.
8D\	4b 4g/
8C#\J	.
!LO:TX:a:t=P:mixed beam:problem	!
8D\L	4a 4f# 4c/
8C#\	.
8D\	4a 4f# 4c/
8DD/J	.
=47	=47
!LO:TX:a:t=P:mixed beam:problem	!
8GG/L	4g 4d 4B/
8G\	.
8D\	4g 4d 4B/
8BB\J	.
8GG/	8g 8d 8B/
8r	8r
=:|!|:	=:|!|:
*>K	*>K
4r	8.ccL 8.a\
.	16bJk 16g\
=48	=48
8D\L	4a 4f#/
8C#X\	.
8D\	4a 4f#/
8C#\J	.
8D/L	4r
8AA/	.
8FF#/	4a 4f#/
8DD/J	.
=49	=49
8G\L	4b 4g/
8F#\	.
8G\	4b 4g/
8F#\J	.
8G\L	4r
8D\	.
8BB\	4b 4g/
8GG\J	.
=50	=50
8D\L	4cc 4a\
8C#X\	.
8D\	4cc 4a\
8C#\J	.
8D\L	4cc 4a\
8E\	.
8F#\	4cc 4a\
8D\J	.
=51	=51
8G\L	4b 4g/
8F#\	.
8G\	4r
8F#\J	.
4G\	4r
4r	8.bL 8.g\
.	16ccJk 16a\
!LO:TX:a:t=[segno]:problem:znak segno na kresce taktowej	!LO:TX:a:t=[segno]:problem:znak segno na kresce taktowej
!	!LO:TX:b:Bi:t=Dall Segno
!!LO:PB:g=original
=||	=||
*>L	*>L
*clefF4	*clefG2
*k[f#]	*k[f#]
*M2/2	*M2/2
*met(c|)	*met(c|)
!	!LO:TX:a:Bi:t=Var 4:rj
8.dL 8.B\	4r
16cJk 16A\	.
=52	=52
4B 4G\	4r
4B 4G\	16ddd\LL
.	16ccc#X\
.	16ddd\
.	16ccc#\JJ
4r	4ddd\
4B 4G\	4r
=53	=53
!LO:SIC:n=1:s=4c:v	!
!LO:SIC:n=2:s=4A:v	!
4B 4G\	4r
!	!LO:TX:a:t=d
!LO:SIC:n=1:s=4c:v	!
!LO:SIC:n=2:s=4A:v	!
!	!LO:SIC:s=16ddd:v
4B 4G\	16ccc\LL
!	!LO:SIC:s=16ccc#:v
.	16ccc\
.	16ddd\
!	!LO:SIC:s=16ccc#:v
.	16ccc\JJ
4r	4ddd\
8.cL 8.A\	4r
16BJk 16G\	.
=54	=54
4A 4D\	4r
4A 4D\	16ddd\LL
!	!LO:SIC:s=16ccc#:v
.	16ccc\
!	!LO:SIC:s=16ccc#:v
.	16ddd 16ccc\
.	16ccc\JJ
4r	4ddd\
4A 4D\	4r
=55	=55
4B 4G\	4r
4r	16ddd\LL
!	!LO:SIC:s=16ccc#:v
.	16ccc\
.	16ddd\
!	!LO:SIC:s=16ccc#:v
.	16ccc\JJ
4r	4ddd\
8.BL 8.G\	4r
16cJk 16A\	.
!LO:TX:a:t=[segno]:problem:znak segno na kresce taktowej	!LO:TX:a:t=[segno]:problem:znak segno na kresce taktowej
=56||	=56||
*>M	*>M
4d 4B\	8dd\L
.	8gg\
4d 4B\	8bb\
.	8aa\J
4d 4B\	8gg\L
.	8ff#\
4d 4B\	8ee\
.	8dd\J
=57	=57
4c 4A\	8cc\L
.	8ff#\
4d 4B\	8aa\
.	8gg\J
4e 4c\	8ff#\L
.	8ee\
4c 4A\	8dd\
.	8cc\J
=58	=58
4B 4G\	8b\L
.	8dd\
4B 4G\	8gg\
.	8bb\J
4c 4A 4D\	8aa\L
.	8gg\
4c 4A 4D\	8aa\
.	8ff#\J
=59	=59
4B 4G\	4gg\
4B 4G\	4bb\
8B 8G\	8gg\
8r	8r
!!LO:LB:g=original
=:|!|:	=:|!|:
*>N	*>N
8.cL 8.A\	4r
16BJk 16G\	.
=60	=60
4A 4D\	4r
4A 4D\	16ddd\LL
.	16ccc#X\
.	16ddd\
.	16ccc#\JJ
4r	4ddd\
4A 4D\	4r
=61	=61
4B 4G\	4r
4B 4G\	16ddd\LL
!	!LO:SIC:s=16ccc#:v
.	16ccc\
.	16ddd\
!	!LO:SIC:s=16ccc#:v
.	16ccc\JJ
4r	4ddd\
4B 4G\	4r
=62	=62
4c 4A\	8ccc\L
.	8aa\
4c 4A\	8ff#\
.	8dd\J
4c 4A\	8ee\L
.	8dd\
4c 4A\	8ee\
.	8ff#\J
=63	=63
4B 4G\	8gg\L
.	8bb\
4c 4A\	8aa\
.	8ff#\J
8B 8G\	8gg\
8r	8r
8.BL 8.G\	4r
16cJk 16A\	.
!LO:TX:a:t=[segno]:problem:znak segno na kresce taktowej	!LO:TX:a:t=[segno]:problem:znak segno na kresce taktowej
!	!LO:TX:b:Bi:t=Dall Segno
=||	=||
*>O	*>O
*clefF4	*clefG2
*k[f#]	*k[f#]
*M2/2	*M2/2
*met(c|)	*met(c|)
!	!LO:TX:a:t=P:w źródle po lewej stronie systemu (przed Var&colon; 5.) dodatkowa klamra:problem
!	!LO:TX:a:Bi:t=Var&colon; 5.:rj
4r	8.ddL 8.b\
.	16ccJk 16a\
=64	=64
4d 4B 4G\	8.bL 8.g/
.	16a#XJk 16f#/
4d 4B 4G\	8.bL 8.g/
.	16a#Jk 16f#/
4d 4B 4G\	4b 4g/
!	!LO:SIC:n=2:s=8.an:v
4r	8.ccL 8.a#/
.	16bJk 16g/
!!LO:LB:g=original
=65	=65
4A 4F# 4D\	8.aL 8.f#/
.	16g#XJk 16e#X/
!	!LO:TX:a:t=P:dźwięki e# | g#  przyjęto jako przednutki:problem
.	16qqg# 16qqe#/
4A 4F# 4D\	8.aL 8.f#/
.	16g#Jk 16e#/
4A 4F# 4D\	4a 4f#/
4r	8.ccL 8.a/
.	16bJk 16gn/
=66	=66
4A 4F# 4D\	8.aL 8.f#/
.	16g#XJk 16e#X/
4A 4F# 4D\	8.aL 8.f#/
.	16g#Jk 16e#/
4A 4F# 4D\	8.aL 8.f#/
.	16f#Jk 16d/
4A 4F# 4D\	8.gnL 8.en/
.	16aJk 16f#/
=67	=67
4d 4B 4G\	8.bL 8.g/
.	16a#XJk 16f#/
*rep	*
4d 4B 4G\	8.ddL 8.b/
.	16ccJk 16an/
*Xrep	*
*rep	*
4d 4B 4G\	4b 4g/
*Xrep	*
4r	8.bL 8.g\
.	16ccJk 16a\
!LO:TX:a:t=[segno]:problem:znak segno na kresce taktowej	!LO:TX:a:t=[segno]:problem:znak segno na kresce taktowej
=68||	=68||
*>P	*>P
4d 4B 4G\	8.ddL 8.b\
.	16cc#XJk 16a#X\
*rep	*
4d 4B 4G\	8.ddL 8.b\
.	16cc#Jk 16a#\
*Xrep	*
*rep	*
4d 4B 4G\	8.ddL 8.b\
.	16bJk 16g\
*Xrep	*
4r	8.ccnL 8.an\
.	16ddJk 16b\
=69	=69
4c 4C\	8.eeL 8.cc\
.	16dd#XJk 16b\
4c 4C\	8.eeL 8.cc\
.	16dd#Jk 16b\
4c 4C\	4ee 4cc\
4r	4cc 4a\
=70	=70
4B 4G 4D\	8.bL 8.g\
.	16dd\Jk
4B 4G 4D\	8.bL 8.g\
.	16dd\Jk
4c 4A 4F# 4D\	8.aL 8.f#\
.	16dd\Jk
4c 4A 4F# 4D\	8.aL 8.f#\
.	16dd\Jk
!!LO:LB:g=original
=71	=71
4B 4G\	4g/
4B 4G\	4b/
8B 8G\	8g/
8r	8r
=:|!|:	=:|!|:
*>R	*>R
4r	8.ccL 8.a\
.	16bJk 16g\
=72	=72
4A 4F# 4D\	8.aL 8.f#/
.	16g#XJk 16e#X/
*rep	*rep
4A 4F# 4D\	8.aL 8.f#/
.	16g#XJk 16e#X/
*Xrep	*Xrep
*rep	*
4A 4F# 4D\	4a 4f#/
*Xrep	*
4r	8.ddL 8.b\
.	16ccJk 16a\
=73	=73
4B 4G\	8.bL 8.g/
.	16a#XJk 16f#/
*rep	*rep
4B 4G\	8.bL 8.g/
.	16a#XJk 16f#/
*Xrep	*Xrep
*rep	*
4B 4G\	8b 8g/
.	8r
*Xrep	*
4r	8.ddL 8.b\
!	!LO:SIC:n=2:s=16an:v
.	16ccJk 16a#\
=74	=74
4A 4F# 4D\	8.ccL 8.a\
.	16dd\Jk
*rep	*rep
4A 4F# 4D\	8.ccL 8.a\
.	16dd\Jk
*Xrep	*Xrep
4B 4G\	8.bL 8.g\
.	16dd\Jk
*rep	*rep
4B 4G\	8.bL 8.g\
.	16dd\Jk
*Xrep	*Xrep
=75	=75
4A 4F# 4D\	4a 4f#/
*rep	*
4A 4F# 4D\	4a 4f#/
*Xrep	*
*rep	*
4A 4F# 4D\	8a 8f#/
.	8r
*Xrep	*
!	!LO:TX:a:t=P:w źródle trzy kropki:problem
8r	8.bL 8.g\
!LO:N:vis=4	!
8r	.
.	16ccJk 16a\
!LO:TX:a:t=[segno]:problem:znak segno na kresce taktowej	!LO:TX:a:t=[segno]:problem:znak segno na kresce taktowej
!	!LO:TX:b:Bi:t=Da&colon; Segno
=||	=||
*>S	*>S
*clefF4	*clefG2
*k[f#]	*k[f#]
*M2/2	*M2/2
*met(c|)	*met(c|)
!	!LO:TX:a:t=P:w źródle po lewej stronie systemu (przed Var&colon; 6) dodatkowa klamra:problem
!	!LO:TX:a:Bi:t=Var&colon; 6:rj
4r	8.ddL 8.b\
.	16ccJk 16a\
=76	=76
8G\L	4b 4g/
8d\	.
8B\	16gg\LL
.	16ff#\
8d\J	16gg\
.	16aa\JJ
*rep	*
8G\L	8bb'>\L
8d\	8gg'>\
8B\	8dd'>\
8d\J	8b'>\J
*Xrep	*
=77	=77
8A\L	4cc\
8d\	.
8c\	16ff#\LL
.	16gg\
8d\J	16ff#\
.	16gg\JJ
*rep	*
8A\L	4aa\
8d\	.
8c\	8.ccL 8.a\
8d\J	.
.	16bJk 16g\
*Xrep	*
!!LO:LB:g=original
=78	=78
8D\L	4a 4f#/
8d\	.
8A\	16ff#\LL
.	16gg\
8d\J	16ff#\
.	16gg\JJ
*rep	*
8D\L	8aa\L
8d\	8ff#\
8A\	8dd\
8d\J	8ff#\J
*Xrep	*
=79	=79
8G\L	8gg\L
8d\	8bb\
8B\	8gg\
8d\J	8bb\J
4G\	4gg\
4r	8.ddL 8.b\
.	16ccJk 16a\
=80	=80
4G 4GG/	8bL 8g\
.	8gg 8b\
4G 4GG/	8bb 8dd\
.	8aaJ 8cc\
4G 4GG/	8ggL 8b\
.	8ff# 8dd\
4r	8ee 8cc\
.	8ddJ 8b\
=81	=81
4D 4DD/	8ccL 8a\
.	8ff# 8dd\
4D 4DD/	8aa 8ff#\
.	8ggJ 8ee\
4D 4DD/	8ff#L 8dd\
.	8ee 8cc\
4r	8dd 8b\
.	8ccJ 8a\
=82	=82
4G\	8bL 8g\
.	8dd 8b\
4G\	8gg 8b\
.	8bbJ 8dd\
4B\	8aaL 8cc\
.	8gg 8b\
4D/	8aa 8cc\
.	8ff#J 8a\
=83	=83
!LO:TX:a:t=P:mixed beam:problem	!
8GG/L	4gg 4b\
8G\J	.
8D/L	4bb 4dd\
8BB/J	.
8GG/	8gg 8b\
8r	8r
=:|!|:	=:|!|:
*>T	*>T
4r	8.ccL 8.a\
.	16bJk 16g\
=84	=84
4D\	4a 4f#/
4D\	16ff#\LL
.	16gg\
.	16ff#\
.	16gg\JJ
4D\	4aa\
4r	8.ddL 8.b\
.	16ccJk 16a\
=85	=85
4G\	4b 4g\
4G\	16gg\LL
.	16aa\
.	16gg\
.	16aa\JJ
4G\	4bb\
4r	8dd\L
.	8b\J
=86	=86
4D/	8cc\L
.	8a\
4D/	8ff#\
.	8a\J
!!LO:LB:g=original
4D\	8aa\L
.	8ff#\
4D\	8dd\
.	8b\J
=87	=87
!LO:N:vis=8	!
4G\	16b\LL
.	16dd\
.	16gg\
.	16bb\JJ
4D\	16aa\LL
.	16gg\
.	16aa\
.	16ff#\JJ
4GG/	4gg\
4r	8.bL 8.g\
.	16ccJk 16a\
=88	=88
4G 4GG/	8ddL 8b 8g\
.	8dd 8b\
4G 4GG/	8bb 8dd\
.	8aaJ 8cc\
4G 4GG/	8ggL 8b\
.	8ff# 8dd\
4r	8ee 8cc\
.	8ddJ 8b\
=89	=89
4D 4DD/	8ccL 8a\
.	8ff# 8dd\
4D 4DD/	8aa 8ff#\
.	8ggJ 8ee\
4D 4DD/	8ff#L 8dd\
.	8ee 8cc\
4r	8dd 8b\
.	8ccJ 8a\
=90	=90
4G\	8bL 8g\
.	8dd 8b\
4G\	8gg 8b\
.	8bbJ 8dd\
4d\	8aaL 8cc\
.	8gg 8b\
4D/	8aa 8cc\
.	8ff#J 8a\
=91	=91
!LO:TX:a:t=P:mixed beam:problem	!
8GG/L	4gg 4b\
8G\	.
8D\	4bb 4dd\
8BB\J	.
8GG/	8gg 8b\
8r	8r
!LO:TX:a:t=P:przekreślony znak segno obok kreski taktowej oraz kreska taktowa koniec repetycji:problem	!LO:TX:a:t=P:w źródle kreska taktowa koniec repetycji:problem
!	!LO:TX:b:Bi:t=Fine
==:|!	==:|!
*-	*-
!!title: @{OTL};
!!!RDF**kern: > = above
!!!RDF**kern: < = below
!!!EED: Wojciech Jakubiak-Danek
!!!EST: 2020-12-11
!!!URL-scan: http://bc.bdsandomierz.pl/dlibra/publication/1308/edition/1276/content
!!!ONB-nifc: Str. 5-6
!!!ENC: Andrzej Kubiczek
!!!END: 2020-06-18
